icons/op-auto-date-16.svg

<svg width="16" height="16" viewBox="0 0 16 16" fill="none" xmlns="http://www.w3.org/2000/svg">
<path fill-rule="evenodd" clip-rule="evenodd" d="M4.75 0C5.16421 0 5.5 0.335786 5.5 0.75V2H10.5V0.75C10.5 0.335786 10.8358 0 11.25 0C11.6642 0 12 0.335786 12 0.75V2H13.25C14.2165 2 15 2.7835 15 3.75V14.25C15 15.2165 14.2165 16 13.25 16H10V14.5H13.25C13.3881 14.5 13.5 14.3881 13.5 14.25V7.5H2.5V10H1V3.75C1 2.7835 1.7835 2 2.75 2H4V0.75C4 0.335786 4.33579 0 4.75 0ZM13.25 3.5C13.3881 3.5 13.5 3.61193 13.5 3.75V6H2.5V3.75C2.5 3.61193 2.61193 3.5 2.75 3.5H13.25ZM5.04998 15.0425C5.08771 14.9585 5.14301 14.8822 5.21272 14.8179L6.43851 13.6881H1.75048C1.55144 13.6881 1.36056 13.6152 1.21981 13.4854C1.07907 13.3555 1 13.1795 1 12.9959C1 12.8123 1.07907 12.6362 1.21981 12.5064C1.36056 12.3765 1.55144 12.3036 1.75048 12.3036H6.43751L5.21272 11.1729C5.07608 11.0423 5.00052 10.8674 5.00232 10.6859C5.00412 10.5044 5.08314 10.3308 5.22235 10.2025C5.36156 10.0742 5.54983 10.0015 5.74661 10C5.94339 9.99853 6.13292 10.0684 6.2744 10.1946L8.78002 12.5058C8.84976 12.57 8.90508 12.6464 8.94283 12.7304C8.98057 12.8144 9 12.9045 9 12.9954C9 13.0864 8.98057 13.1764 8.94283 13.2604C8.90508 13.3444 8.84976 13.4208 8.78002 13.4851L6.2744 15.7972C6.20469 15.8615 6.12193 15.9125 6.03085 15.9473C5.93977 15.9821 5.84215 16 5.74356 16C5.64497 16 5.54735 15.9821 5.45627 15.9473C5.36519 15.9125 5.28243 15.8615 5.21272 15.7972C5.14301 15.7329 5.08771 15.6565 5.04998 15.5725C5.01225 15.4885 4.99284 15.3985 4.99284 15.3075C4.99284 15.2166 5.01225 15.1265 5.04998 15.0425Z" fill="#636C76"/>
</svg>

<svg xmlns="http://www.w3.org/2000/svg" width="16" height="16" viewBox="0 0 16 16"><path d="M4.75 0a.75.75 0 0 1 .75.75V2h5V.75a.75.75 0 0 1 1.5 0V2h1.25c.967 0 1.75.783 1.75 1.75v10.5A1.75 1.75 0 0 1 13.25 16H10v-1.5h3.25a.25.25 0 0 0 .25-.25V7.5h-11V10H1V3.75C1 2.783 1.783 2 2.75 2H4V.75A.75.75 0 0 1 4.75 0Zm8.5 3.5H2.75a.25.25 0 0 0-.25.25V6h11V3.75a.25.25 0 0 0-.25-.25Zm-8.2 11.542a.687.687 0 0 1 .163-.224l1.226-1.13H1.75a.782.782 0 0 1-.53-.203.664.664 0 0 1-.22-.489c0-.184.079-.36.22-.49a.786.786 0 0 1 .53-.202h4.688l-1.225-1.131a.668.668 0 0 1-.211-.487.666.666 0 0 1 .22-.483.786.786 0 0 1 .525-.203.783.783 0 0 1 .527.195l2.506 2.311c.07.064.125.14.163.224a.645.645 0 0 1 0 .53.69.69 0 0 1-.163.225l-2.506 2.312a.802.802 0 0 1-1.061 0 .697.697 0 0 1-.163-.224.646.646 0 0 1 0-.531Z"/></svg>
